X: 12820
T: Feet Washing, The
R: jig
M: 6/8
K: Amixolydian
f|ecA ABA|Bce f2g|agf ece|fac BBB|
ecA ABA|Bce f2g|agf ece|fac A2:|
e|fae f2e|faf ece|fae f2e|aec BBB|
fae f2e|faf ece|agf ece|fac A2e|
fae f2e|faf ece|fae f2e|aec BBB|
ecA ABA|Bce f2g|agf ece|fac A2||

